assets/img/wi-fi.svg

<svg 
 xmlns="http://www.w3.org/2000/svg"
 xmlns:xlink="http://www.w3.org/1999/xlink"
 width="50px" height="50px">
<path fill-rule="evenodd"  fill-opacity="0" fill="rgb(33, 130, 238)"
 d="M0.000,0.000 L50.000,0.000 L50.000,50.000 L0.000,50.000 L0.000,0.000 Z"/>
<path fill-rule="evenodd"  fill="rgb(0, 111, 235)"
 d="M45.753,27.664 C45.589,27.828 45.375,27.911 45.160,27.911 C44.946,27.911 44.731,27.828 44.568,27.664 C38.816,21.872 31.157,18.683 23.000,18.683 C14.843,18.683 7.183,21.872 1.432,27.665 C1.104,27.994 0.575,27.994 0.247,27.665 C-0.080,27.335 -0.080,26.802 0.247,26.472 C6.316,20.361 14.396,16.997 23.000,16.997 C31.604,16.997 39.685,20.362 45.753,26.472 C46.080,26.801 46.080,27.335 45.753,27.664 ZM40.828,31.429 C41.155,31.759 41.155,32.292 40.828,32.622 C40.500,32.952 39.971,32.952 39.643,32.622 C30.465,23.381 15.533,23.381 6.356,32.622 C6.192,32.786 5.978,32.869 5.763,32.869 C5.549,32.869 5.335,32.786 5.171,32.622 C4.844,32.292 4.844,31.759 5.171,31.429 C15.002,21.530 30.998,21.532 40.828,31.429 ZM23.000,31.014 C27.879,31.014 32.463,32.923 35.904,36.388 C36.231,36.718 36.231,37.251 35.904,37.581 C35.740,37.745 35.526,37.828 35.312,37.828 C35.097,37.828 34.883,37.745 34.719,37.581 C31.594,34.434 27.432,32.701 23.000,32.701 C18.568,32.701 14.406,34.434 11.281,37.581 C10.953,37.910 10.424,37.910 10.096,37.581 C9.769,37.251 9.769,36.718 10.096,36.388 C13.538,32.923 18.120,31.014 23.000,31.014 ZM23.000,38.950 C26.027,38.950 28.488,41.429 28.488,44.476 C28.488,47.524 26.027,50.003 23.000,50.003 C19.974,50.003 17.512,47.524 17.512,44.476 C17.512,41.429 19.974,38.950 23.000,38.950 ZM23.000,48.315 C25.103,48.315 26.813,46.592 26.813,44.475 C26.813,42.358 25.102,40.636 23.000,40.636 C20.898,40.636 19.188,42.358 19.188,44.475 C19.188,46.592 20.897,48.315 23.000,48.315 Z"/>
</svg>

<svg id="Слой_1" data-name="Слой 1" xmlns="http://www.w3.org/2000/svg" viewBox="0 0 50 50"><defs><style>.cls-1{fill:#2182ee;fill-opacity:0;}.cls-2{fill:#11a2f6;}</style></defs><title>wi-fi</title><path class="cls-1" d="M0,0H50V50H0Z"/><path class="cls-2" d="M45.75,27.66a.79.79,0,0,1-.59.25.81.81,0,0,1-.59-.25,30.38,30.38,0,0,0-43.14,0,.85.85,0,0,1-1.18,0,.85.85,0,0,1,0-1.2,32.06,32.06,0,0,1,45.5,0A.84.84,0,0,1,45.75,27.66Zm-4.92,3.77a.86.86,0,0,1,0,1.19.84.84,0,0,1-1.19,0,23.44,23.44,0,0,0-33.28,0,.84.84,0,0,1-1.19-1.19A25.12,25.12,0,0,1,40.83,31.43ZM23,31a18,18,0,0,1,12.9,5.38.85.85,0,0,1-.59,1.44.85.85,0,0,1-.59-.25,16.51,16.51,0,0,0-23.44,0,.83.83,0,0,1-1.18,0,.84.84,0,0,1,0-1.19A18,18,0,0,1,23,31ZM23,39a5.53,5.53,0,1,1-5.49,5.53A5.51,5.51,0,0,1,23,39Zm0,9.36a3.84,3.84,0,1,0-3.81-3.84A3.83,3.83,0,0,0,23,48.31Z"/></svg>
